svg/bypass.svg

<svg width="24" height="24" viewBox="0 0 24 24"  xmlns="http://www.w3.org/2000/svg">
<path d="M20 16L23 13L20 10V12H18.748C17.8599 8.54955 14.7277 6 11 6C7.27232 6 4.14012 8.54955 3.25203 12H1V14H5C5 10.6863 7.68629 8 11 8C14.3137 8 17 10.6863 17 14H20V16Z" />
<path d="M15 14C15 16.2091 13.2092 18 11 18C8.7909 18 7.00004 16.2091 7.00004 14C7.00004 11.7909 8.7909 10 11 10C13.2092 10 15 11.7909 15 14Z" />
</svg>

<svg width="24" height="24" viewBox="0 0 24 24" xmlns="http://www.w3.org/2000/svg"><path d="M20 16l3-3-3-3v2h-1.252a8.003 8.003 0 0 0-15.496 0H1v2h4a6 6 0 0 1 12 0h3v2z"/><path d="M15 14a4 4 0 1 1-8 0 4 4 0 0 1 8 0z"/></svg>
